X: 132
T: No_216_Song_for_Success_in_Hunting_(c).krn
N: Derived from No_216_Song_for_Success_in_Hunting_(c).krn
%%abc-version 2.0
%%abcx-abcm2ps-target-version 5.9.1 (29 Sep 2008)
%%abc-creator hum2abc beta
%%abcx-conversion-date 2019/03/15 08:38:45
%%humdrum-veritas 2711078525
%%humdrum-veritas-data 1563801442
%%linebreak <none>
%%barnumbers 0
L: 1/8
M: 2/4
K: E clef=bass
[K:clef=bass][M:2/4]z3G, | 
E,3z | 
E,E, (E,B,,) | 
B,,3z | 
A,G, (A,G,) | 
E,3z ||  
[M:3/4]E,E, (E,B,,)B,,2 ||  
[M:7/8]B,B,CB,A,(A,G,) ||  
[M:2/4]A,A, (A,G,) | 
E,3z | 
E,E, (E,B,,) | 
B,,4 | 
A,G, (A,G,) | 
E,3z ||  
[M:3/4]E,E, (E,B,,)B,,2 ||  
[M:7/8]B,B,CB,A,(A,G,) ||  
[M:2/4]A,A, (A,G,) | 
E,3z ||  
[M:3/4]E,E, (E,B,,)B,,2 ||  
[M:2/4]A,G, (A,G,) | 
E,3z | 
E,E, (E,B,,) | 
B,,2G,E, | 
G,4 | 
B,,/B,,/B,, C,B,, |]  



